src/assets/Images/021-calendar.svg

<svg enable-background="new 0 0 480 480" viewBox="0 0 480 480" xmlns="http://www.w3.org/2000/svg"><path d="m400 160h-256c-4.418 0-8 3.582-8 8v56h-56c-4.418 0-8 3.582-8 8v128c0 4.418 3.582 8 8 8h192c4.418 0 8-3.582 8-8v-56h120c4.418 0 8-3.582 8-8v-128c0-4.418-3.582-8-8-8zm-264 192h-48v-48h48zm0-64h-48v-48h48zm64 64h-48v-48h48zm0-64h-48v-48h48zm0-64h-48v-48h48zm64 128h-48v-48h48zm0-64h-48v-48h48zm0-64h-48v-48h48zm64 64h-48v-48h48zm0-64h-48v-48h48zm64 64h-48v-48h48zm0-64h-48v-48h48z"/><path d="m432 24h-64v-16c0-4.418-3.582-8-8-8s-8 3.582-8 8v16h-64v-16c0-4.418-3.582-8-8-8s-8 3.582-8 8v16h-64v-16c0-4.418-3.582-8-8-8s-8 3.582-8 8v16h-64v-16c0-4.418-3.582-8-8-8s-8 3.582-8 8v16h-64c-4.418 0-8 3.582-8 8v440c0 4.418 3.582 8 8 8h384c4.418 0 8-3.582 8-8v-440c0-4.418-3.582-8-8-8zm-8 440h-368v-16h368zm0-32h-368v-16h312c2.126.012 4.17-.823 5.68-2.32l50.32-50.4zm-48-43.28v-36.72h36.72zm48-52.72h-56c-4.418 0-8 3.582-8 8v56h-304v-272h368zm0-224h-368v-72h56v16c0 4.418 3.582 8 8 8s8-3.582 8-8v-16h64v16c0 4.418 3.582 8 8 8s8-3.582 8-8v-16h64v16c0 4.418 3.582 8 8 8s8-3.582 8-8v-16h64v16c0 4.418 3.582 8 8 8s8-3.582 8-8v-16h56z"/><path d="m296 320h24v24h-24z"/><path d="m96 184h24v24h-24z"/></svg>

<?xml version="1.0" encoding="iso-8859-1"?>
<!-- Generator: Adobe Illustrator 19.0.0, SVG Export Plug-In . SVG Version: 6.00 Build 0)  -->
<svg version="1.1" id="Capa_1" xmlns="http://www.w3.org/2000/svg" xmlns:xlink="http://www.w3.org/1999/xlink" x="0px" y="0px"
	 viewBox="0 0 480 480" style="enable-background:new 0 0 480 480;" xml:space="preserve">
<g>
	<g>
		<path d="M400,160H144c-4.418,0-8,3.582-8,8v56H80c-4.418,0-8,3.582-8,8v128c0,4.418,3.582,8,8,8h192c4.418,0,8-3.582,8-8v-56h120
			c4.418,0,8-3.582,8-8V168C408,163.582,404.418,160,400,160z M136,352H88v-48h48V352z M136,288H88v-48h48V288z M200,352h-48v-48h48
			V352z M200,288h-48v-48h48V288z M200,224h-48v-48h48V224z M264,352h-48v-48h48V352z M264,288h-48v-48h48V288z M264,224h-48v-48h48
			V224z M328,288h-48v-48h48V288z M328,224h-48v-48h48V224z M392,288h-48v-48h48V288z M392,224h-48v-48h48V224z"/>
	</g>
</g>
<g>
	<g>
		<path d="M432,24h-64V8c0-4.418-3.582-8-8-8s-8,3.582-8,8v16h-64V8c0-4.418-3.582-8-8-8s-8,3.582-8,8v16h-64V8c0-4.418-3.582-8-8-8
			s-8,3.582-8,8v16h-64V8c0-4.418-3.582-8-8-8s-8,3.582-8,8v16H48c-4.418,0-8,3.582-8,8v440c0,4.418,3.582,8,8,8h384
			c4.418,0,8-3.582,8-8V32C440,27.582,436.418,24,432,24z M424,464H56v-16h368V464z M424,432H56v-16h312
			c2.126,0.012,4.17-0.823,5.68-2.32l50.32-50.4V432z M376,388.72V352h36.72L376,388.72z M424,336h-56c-4.418,0-8,3.582-8,8v56H56
			V128h368V336z M424,112H56V40h56v16c0,4.418,3.582,8,8,8s8-3.582,8-8V40h64v16c0,4.418,3.582,8,8,8s8-3.582,8-8V40h64v16
			c0,4.418,3.582,8,8,8s8-3.582,8-8V40h64v16c0,4.418,3.582,8,8,8s8-3.582,8-8V40h56V112z"/>
	</g>
</g>
<g>
	<g>
		<rect x="296" y="320" width="24" height="24"/>
	</g>
</g>
<g>
	<g>
		<rect x="96" y="184" width="24" height="24"/>
	</g>
</g>
<g>
</g>
<g>
</g>
<g>
</g>
<g>
</g>
<g>
</g>
<g>
</g>
<g>
</g>
<g>
</g>
<g>
</g>
<g>
</g>
<g>
</g>
<g>
</g>
<g>
</g>
<g>
</g>
<g>
</g>
</svg>
